usr/share/icons/biglinux-icons-material/scalable/apps/com.hamrick.VueScan.svg

<?xml version="1.0" encoding="UTF-8" standalone="no"?>
<svg
   width="24"
   height="24"
   viewBox="0 0 24 24"
   fill="none"
   version="1.1"
   id="svg5776"
   sodipodi:docname="scanner.svg"
   inkscape:export-filename="printer.png"
   inkscape:export-xdpi="800"
   inkscape:export-ydpi="800"
   xml:space="preserve"
   inkscape:version="1.2.2 (b0a8486541, 2022-12-01)"
   xmlns:inkscape="http://www.inkscape.org/namespaces/inkscape"
   xmlns:sodipodi="http://sodipodi.sourceforge.net/DTD/sodipodi-0.dtd"
   xmlns:xlink="http://www.w3.org/1999/xlink"
   xmlns="http://www.w3.org/2000/svg"
   xmlns:svg="http://www.w3.org/2000/svg"><sodipodi:namedview
     id="namedview5778"
     pagecolor="#ffffff"
     bordercolor="#000000"
     borderopacity="0.25"
     inkscape:showpageshadow="2"
     inkscape:pageopacity="0.0"
     inkscape:pagecheckerboard="0"
     inkscape:deskcolor="#d1d1d1"
     showgrid="false"
     inkscape:zoom="9.1041667"
     inkscape:cx="-30.370709"
     inkscape:cy="17.73913"
     inkscape:window-width="2560"
     inkscape:window-height="1000"
     inkscape:window-x="1680"
     inkscape:window-y="0"
     inkscape:window-maximized="1"
     inkscape:current-layer="svg5776" /><path
     fill-rule="evenodd"
     clip-rule="evenodd"
     d="M9.59604 1.11359C9.71588 1.11486 9.83043 1.0996 9.93969 1.06779C11.3755 0.973736 12.8111 0.977551 14.2467 1.07924C15.5484 1.18066 16.8085 1.46308 18.0269 1.9265C20.0525 2.76044 21.4386 4.2069 22.185 6.26586C22.6119 7.50549 22.8639 8.78021 22.9411 10.09C23.0478 11.7347 23.0096 13.3758 22.8265 15.0133C22.6895 16.1642 22.3916 17.271 21.933 18.3336C21.0824 20.1761 19.704 21.447 17.7978 22.1463C16.2531 22.6682 14.6647 22.943 13.0325 22.9706C11.1966 23.0661 9.37913 22.9287 7.57997 22.5585C4.26839 21.8208 2.22559 19.8018 1.45158 16.5017C1.12311 15.0161 0.974199 13.5124 1.00483 11.9906C0.968176 10.3724 1.14 8.77709 1.52031 7.20471C2.33171 4.11908 4.2905 2.20701 7.39669 1.46852C8.12048 1.29157 8.8536 1.17326 9.59604 1.11359Z"
     fill="url(#paint0_radial_1_33)"
     id="path5741" /><defs
     id="defs5774"><pattern
       id="pattern0"
       patternContentUnits="objectBoundingBox"
       width="1"
       height="1"><use
         xlink:href="#image0_1_33"
         transform="scale(0.025 0.0588235)"
         id="use5755" /></pattern><radialGradient
       id="paint0_radial_1_33"
       cx="0"
       cy="0"
       r="1"
       gradientUnits="userSpaceOnUse"
       gradientTransform="translate(12 1) rotate(90) scale(11)"><stop
         stop-color="#6EBBF7"
         id="stop5758" /><stop
         offset="1"
         stop-color="#2196F3"
         id="stop5760" /></radialGradient><linearGradient
       id="paint1_linear_1_33"
       x1="12.5729"
       y1="9.99479"
       x2="12.5729"
       y2="4.55208"
       gradientUnits="userSpaceOnUse"><stop
         stop-color="#C0C0C0"
         id="stop5763" /><stop
         offset="1"
         stop-color="#FAFAFA"
         stop-opacity="0.992"
         id="stop5765" /></linearGradient><radialGradient
       id="paint2_radial_1_33"
       cx="0"
       cy="0"
       r="1"
       gradientUnits="userSpaceOnUse"
       gradientTransform="translate(19.7917 8.33333) rotate(155.433) scale(17.6384 35.2768)"><stop
         stop-color="#777777"
         id="stop5768" /><stop
         offset="1"
         stop-color="#333333"
         id="stop5770" /></radialGradient><image
       id="image0_1_33"
       width="40"
       height="17"
       xlink:href="data:image/png;base64,iVBORw0KGgoAAAANSUhEUgAAACgAAAARCAYAAACvi+4IAAAACXBIWXMAAA7DAAAOwwHHb6hkAAAAGXRFWHRTb2Z0d2FyZQB3d3cuaW5rc2NhcGUub3Jnm+48GgAAAGhJREFUSIntzrENgDAMRFHOcp3NMgDLZwUkKAhCimmojyLFueBLv3+ota5L4kwN+OoHzvYDZ0sPdAChRrB8jJEbaGa3GsHyiDjVCJYD2NUIlgPY1AiW995zA0sphxrB8tbapUaw8J62B0eWFdJvUfl1AAAAAElFTkSuQmCC" /><linearGradient
       id="a"
       x1="1"
       x2="47"
       gradientTransform="matrix(0,-0.2991,0.2991,0,33.038,286.45)"
       gradientUnits="userSpaceOnUse"><stop
         stop-color="#015093"
         offset="0"
         id="stop5897" /><stop
         stop-color="#015ca7"
         offset="1"
         id="stop5899" /></linearGradient><linearGradient
       id="paint0_linear_3_286"
       x1="12"
       y1="1"
       x2="12"
       y2="12"
       gradientUnits="userSpaceOnUse"><stop
         stop-color="#EEA5FF"
         id="stop5936" /><stop
         offset="1"
         stop-color="#A159B2"
         id="stop5938" /></linearGradient><linearGradient
       id="a-7"
       x1="1"
       x2="47"
       gradientTransform="matrix(0,-0.3501678,0.3501678,0,9.5929137,27.974637)"
       gradientUnits="userSpaceOnUse"><stop
         stop-color="#015093"
         offset="0"
         id="stop5897-9" /><stop
         stop-color="#015ca7"
         offset="1"
         id="stop5899-2" /></linearGradient><linearGradient
       inkscape:collect="always"
       xlink:href="#a-7"
       id="linearGradient6187"
       gradientUnits="userSpaceOnUse"
       gradientTransform="matrix(0,-0.3501678,0.3501678,0,9.596244,27.987391)"
       x1="1"
       x2="47" /><linearGradient
       inkscape:collect="always"
       id="linearGradient4610"><stop
         style="stop-color:#84cbfe"
         id="stop4612" /><stop
         offset="1"
         style="stop-color:#84cbfe;stop-opacity:0"
         id="stop4614" /></linearGradient><linearGradient
       inkscape:collect="always"
       xlink:href="#linearGradient4303"
       id="linearGradient4158"
       y1="543.79797"
       y2="503.798"
       x2="0"
       gradientUnits="userSpaceOnUse"
       gradientTransform="matrix(0.41477199,0,0,0.32451949,-177.46397,-157.54997)" /><linearGradient
       inkscape:collect="always"
       id="linearGradient4303"><stop
         style="stop-color:#c6cdd1"
         id="stop4305" /><stop
         offset="1"
         style="stop-color:#e0e5e7"
         id="stop4307" /></linearGradient><linearGradient
       inkscape:collect="always"
       id="linearGradient5002"><stop
         style="stop-color:#2e5d89"
         id="stop5004" /><stop
         offset="1"
         style="stop-color:#1b92f4"
         id="stop5006" /></linearGradient><linearGradient
       inkscape:collect="always"
       id="linearGradient4199"><stop
         style="stop-color:#2f3943"
         id="stop4201" /><stop
         offset="1"
         style="stop-color:#4d5662"
         id="stop4203" /></linearGradient><linearGradient
       inkscape:collect="always"
       id="linearGradient4191"><stop
         style="stop-color:#18222a"
         id="stop4193" /><stop
         offset="1"
         style="stop-color:#566069"
         id="stop4195" /></linearGradient><linearGradient
       inkscape:collect="always"
       id="linearGradient4514"
       xlink:href="#linearGradient4199"
       y1="507.798"
       y2="503.798"
       gradientUnits="userSpaceOnUse"
       x2="0"
       gradientTransform="matrix(0.37500001,0,0,0.36057857,-161.21602,-177.15877)" /><linearGradient
       inkscape:collect="always"
       id="linearGradient4522"
       xlink:href="#linearGradient4303"
       y1="46"
       y2="37"
       x1="43"
       gradientUnits="userSpaceOnUse"
       x2="8"
       gradientTransform="matrix(0.371795,0,0,0.37500001,-16.867118,3)" /><linearGradient
       inkscape:collect="always"
       id="linearGradient4530"
       xlink:href="#linearGradient5002"
       y1="509.798"
       y2="537.79797"
       gradientUnits="userSpaceOnUse"
       x2="0"
       gradientTransform="matrix(0.37860575,0,0,0.39148371,-162.68922,-193.05837)" /><linearGradient
       inkscape:collect="always"
       xlink:href="#linearGradient4199"
       id="linearGradient4545-5-7"
       x1="3"
       x2="-1"
       gradientUnits="userSpaceOnUse"
       gradientTransform="matrix(0,0.37860358,-0.37087913,0,-2.8094207,18.057698)" /><linearGradient
       inkscape:collect="always"
       id="linearGradient4616"
       xlink:href="#linearGradient4610"
       y1="-521.79797"
       y2="-518.79797"
       gradientUnits="userSpaceOnUse"
       x2="0"
       gradientTransform="matrix(0.36057705,0,0,0.38461717,-155.32321,189.55783)" /><linearGradient
       inkscape:collect="always"
       id="linearGradient4616-6"
       xlink:href="#linearGradient4610"
       y1="-521.79797"
       y2="-518.79797"
       gradientUnits="userSpaceOnUse"
       x2="0"
       gradientTransform="matrix(0.36057705,0,0,0.38461714,-155.32321,212.40402)" /><linearGradient
       inkscape:collect="always"
       id="linearGradient4650"
       xlink:href="#linearGradient4191"
       y1="505.798"
       y2="509.798"
       gradientUnits="userSpaceOnUse"
       x2="0"
       gradientTransform="matrix(0.37500001,0,0,0.37500001,-161.21602,-184.42425)" /><linearGradient
       inkscape:collect="always"
       id="linearGradient4530-3"
       xlink:href="#linearGradient4303"
       y1="509.798"
       y2="537.79797"
       gradientUnits="userSpaceOnUse"
       x2="0"
       gradientTransform="matrix(0.39753396,0,0,0.40687131,-170.40837,-201.19138)" /></defs><path
     id="path6165"
     d="M 12.09375 1 C 11.375924 0.99809188 10.657357 1.0213324 9.9394531 1.0683594 C 9.8301932 1.1001693 9.715543 1.1145512 9.5957031 1.1132812 C 8.8532639 1.1729512 8.1202737 1.2918002 7.3964844 1.46875 C 4.2902975 2.2072393 2.3309304 4.1194512 1.5195312 7.2050781 C 1.1392216 8.7774566 0.96725229 10.372036 1.0039062 11.990234 C 0.97327528 13.512033 1.1227022 15.016355 1.4511719 16.501953 C 2.2251811 19.80205 4.2685014 21.820894 7.5800781 22.558594 C 8.6298011 22.774588 9.685834 22.909321 10.748047 22.966797 A 8.0535081 8.0535081 0 0 1 16.177734 11.753906 L 12.396484 22.740234 L 13.894531 22.740234 L 15.804688 17.138672 L 16.839844 17.138672 L 14.955078 22.740234 L 15.466797 22.740234 C 15.826367 22.677559 16.183977 22.601687 16.539062 22.513672 L 18.242188 17.525391 C 18.258397 17.478466 18.272133 17.431036 18.283203 17.384766 C 18.294273 17.338497 18.302494 17.293367 18.308594 17.248047 C 18.314714 17.202731 18.319013 17.157341 18.320312 17.113281 C 18.321612 17.069225 18.319806 17.026865 18.316406 16.984375 C 18.312996 16.941885 18.306728 16.899995 18.298828 16.859375 C 18.290908 16.818755 18.281811 16.778684 18.269531 16.740234 C 18.257251 16.701785 18.243042 16.664876 18.226562 16.628906 C 18.210083 16.592931 18.190452 16.558581 18.169922 16.525391 C 18.149382 16.492201 18.127946 16.459787 18.103516 16.429688 C 18.079086 16.399588 18.051607 16.372423 18.023438 16.345703 C 17.995278 16.318993 17.965344 16.292561 17.933594 16.269531 C 17.901844 16.246511 17.869164 16.226061 17.833984 16.207031 C 17.798806 16.188001 17.761116 16.17098 17.722656 16.15625 C 17.684205 16.14152 17.645096 16.129261 17.603516 16.119141 C 17.56194 16.109021 17.519149 16.100903 17.474609 16.095703 C 17.430067 16.090503 17.383287 16.087891 17.335938 16.087891 L 16.169922 16.087891 L 17.759766 11.542969 A 8.0535081 8.0535081 0 0 1 18.001953 11.527344 A 8.0537109 8.0537109 0 0 1 22.960938 13.261719 C 23.01232 12.206093 23.010084 11.148453 22.941406 10.089844 C 22.864206 8.7800551 22.612446 7.5052538 22.185547 6.265625 C 21.439148 4.2066671 20.052942 2.7597204 18.027344 1.9257812 C 16.808945 1.4623617 15.547792 1.181498 14.246094 1.0800781 C 13.528294 1.0292337 12.811576 1.0019081 12.09375 1 z M 22.619141 16.083984 L 19.853516 16.087891 L 17.769531 22.15625 C 17.778743 22.153156 17.787667 22.149595 17.796875 22.146484 C 19.703073 21.447185 21.082995 20.176483 21.933594 18.333984 C 22.24796 17.605581 22.485161 16.855848 22.648438 16.085938 C 22.638495 16.085705 22.62915 16.083984 22.619141 16.083984 z " /><path
     id="path6175"
     style="fill:url(#linearGradient6187);stroke-width:1.08527"
     d="m 16.464732,11.693077 a 8.0446683,8.0446683 0 0 1 0.5,-0.08984 8.0446683,8.0446683 0 0 1 0.548829,-0.04297 8.0535081,8.0535081 0 0 0 -1.048829,0.132813 z" /><g
     id="g487"
     transform="translate(20)"><rect
       width="13.272684"
       x="-14.636341"
       y="5.9422998"
       rx="0"
       height="12.980769"
       style="fill:url(#linearGradient4158);stroke-width:0.288462"
       id="rect4139" /><rect
       width="12.692308"
       x="-14.347878"
       y="6.2307792"
       height="11.538462"
       style="fill:url(#linearGradient4530-3);stroke-width:1.78846;stroke-linecap:round;stroke-linejoin:bevel"
       id="rect4189-8" /><path
       inkscape:connector-curvature="0"
       style="fill:url(#linearGradient4522);stroke-width:0.288462"
       id="rect4188"
       d="m -14.636344,17.980676 v 0.942402 c 0,0.425884 0.264144,0.576922 0.686389,0.576922 h 12.0059219 c 0.2884587,0 0.5769231,-0.288455 0.5769231,-0.576922 l -2.9e-6,-0.86538 z" /><rect
       width="12.115382"
       x="-14.059418"
       y="6.5192404"
       height="10.961544"
       style="fill:url(#linearGradient4530);stroke-width:1.78846;stroke-linecap:round;stroke-linejoin:bevel"
       id="rect4189" /><path
       inkscape:connector-curvature="0"
       style="fill:url(#linearGradient4514);stroke-width:0.288462"
       id="rect4188-1"
       d="m -14.636344,5.9423135 3e-6,-0.8653904 C -14.636341,4.7884673 -14.347883,4.5 -14.046429,4.5 h 12.1023959 c 0.2884587,0 0.5769231,0.2884673 0.5769231,0.5769231 l -2.9e-6,0.8653904 z" /><rect
       width="11.538465"
       x="-13.770956"
       y="11.134617"
       height="0.57692105"
       style="fill:#84cbfe;stroke-width:1.78846;stroke-linecap:round;stroke-linejoin:bevel"
       id="rect4585" /><rect
       width="11.538465"
       x="-13.770956"
       y="11.71154"
       height="1.1538414"
       style="opacity:0.2;fill:url(#linearGradient4616-6);stroke-width:1.78846;stroke-linecap:round;stroke-linejoin:bevel"
       id="rect4585-1-9" /><rect
       width="11.538465"
       x="-13.770956"
       y="-11.134617"
       height="1.1538414"
       style="opacity:0.2;fill:url(#linearGradient4616);stroke-width:1.78846;stroke-linecap:round;stroke-linejoin:bevel"
       id="rect4585-1"
       transform="scale(1,-1)" /><rect
       width="6.346148"
       x="-13.482493"
       y="9.4038649"
       height="7.7884493"
       style="fill:#eff0f1;stroke-width:1.78846;stroke-linecap:round;stroke-linejoin:bevel"
       id="rect4532" /><path
       inkscape:connector-curvature="0"
       style="fill:url(#linearGradient4545-5-7);stroke-width:0.576923;stroke-linecap:round;stroke-linejoin:round"
       id="rect4512-0-1"
       d="M -2.8094207,18.057698 H -13.194036 v 0.576918 c 0,0.288467 0.288461,0.576922 0.576926,0.576922 h 9.2307692 c 0.2884585,0 0.5769262,-0.288455 0.5769232,-0.576922 z" /><circle
       cx="-18.634617"
       cy="12.434527"
       style="fill:#11d116;stroke-width:0.576923;stroke-linecap:round;stroke-linejoin:round"
       r="0.28846154"
       id="path4292-3"
       transform="matrix(0,-1,-1,0,0,0)" /><rect
       width="13.269227"
       x="-14.636341"
       y="5.0769329"
       height="0.86538148"
       style="fill:url(#linearGradient4650);stroke-width:1.78846;stroke-linecap:round;stroke-linejoin:bevel"
       id="rect4642" /></g></svg>

<svg xmlns="http://www.w3.org/2000/svg" xmlns:xlink="http://www.w3.org/1999/xlink" xml:space="preserve" width="24" height="24" fill="none"><path fill="url(#a)" fill-rule="evenodd" d="M9.596 1.114c.12 0 .234-.014.344-.046a31.627 31.627 0 0 1 4.307.011c1.301.102 2.561.384 3.78.848 2.025.833 3.412 2.28 4.158 4.339.427 1.24.679 2.514.756 3.824a27.94 27.94 0 0 1-.114 4.923 11.88 11.88 0 0 1-.894 3.32c-.85 1.843-2.229 3.114-4.135 3.813a15.624 15.624 0 0 1-4.765.825 21.423 21.423 0 0 1-5.453-.413c-3.312-.737-5.354-2.756-6.128-6.056a19.047 19.047 0 0 1-.447-4.511 18.491 18.491 0 0 1 .515-4.786c.812-3.086 2.77-4.998 5.877-5.736a13.953 13.953 0 0 1 2.199-.355Z" clip-rule="evenodd"/><defs><linearGradient id="c" x1="1" x2="47" gradientTransform="rotate(-90 18.784 9.19) scale(.35017)" gradientUnits="userSpaceOnUse"><stop offset="0" stop-color="#015093"/><stop offset="1" stop-color="#015ca7"/></linearGradient><linearGradient xlink:href="#c" id="i" x1="1" x2="47" gradientTransform="rotate(-90 18.792 9.196) scale(.35017)" gradientUnits="userSpaceOnUse"/><linearGradient id="g"><stop style="stop-color:#84cbfe"/><stop offset="1" style="stop-color:#84cbfe;stop-opacity:0"/></linearGradient><linearGradient xlink:href="#d" id="j" x2="0" y1="543.798" y2="503.798" gradientTransform="matrix(.41477 0 0 .32452 -177.464 -157.55)" gradientUnits="userSpaceOnUse"/><linearGradient id="d"><stop style="stop-color:#c6cdd1"/><stop offset="1" style="stop-color:#e0e5e7"/></linearGradient><linearGradient id="f"><stop style="stop-color:#2e5d89"/><stop offset="1" style="stop-color:#1b92f4"/></linearGradient><linearGradient id="e"><stop style="stop-color:#2f3943"/><stop offset="1" style="stop-color:#4d5662"/></linearGradient><linearGradient id="h"><stop style="stop-color:#18222a"/><stop offset="1" style="stop-color:#566069"/></linearGradient><linearGradient xlink:href="#e" id="n" x2="0" y1="507.798" y2="503.798" gradientTransform="matrix(.375 0 0 .36058 -161.216 -177.159)" gradientUnits="userSpaceOnUse"/><linearGradient xlink:href="#d" id="l" x1="43" x2="8" y1="46" y2="37" gradientTransform="matrix(.3718 0 0 .375 -16.867 3)" gradientUnits="userSpaceOnUse"/><linearGradient xlink:href="#f" id="m" x2="0" y1="509.798" y2="537.798" gradientTransform="matrix(.3786 0 0 .39148 -162.69 -193.058)" gradientUnits="userSpaceOnUse"/><linearGradient xlink:href="#e" id="q" x1="3" x2="-1" gradientTransform="matrix(0 .3786 -.37088 0 -2.81 18.058)" gradientUnits="userSpaceOnUse"/><linearGradient xlink:href="#g" id="p" x2="0" y1="-521.798" y2="-518.798" gradientTransform="matrix(.36058 0 0 .38462 -155.323 189.558)" gradientUnits="userSpaceOnUse"/><linearGradient xlink:href="#g" id="o" x2="0" y1="-521.798" y2="-518.798" gradientTransform="matrix(.36058 0 0 .38462 -155.323 212.404)" gradientUnits="userSpaceOnUse"/><linearGradient xlink:href="#h" id="r" x2="0" y1="505.798" y2="509.798" gradientTransform="matrix(.375 0 0 .375 -161.216 -184.424)" gradientUnits="userSpaceOnUse"/><linearGradient xlink:href="#d" id="k" x2="0" y1="509.798" y2="537.798" gradientTransform="matrix(.39753 0 0 .40687 -170.408 -201.191)" gradientUnits="userSpaceOnUse"/><radialGradient id="a" cx="0" cy="0" r="1" gradientTransform="matrix(0 11 -11 0 12 1)" gradientUnits="userSpaceOnUse"><stop stop-color="#6EBBF7"/><stop offset="1" stop-color="#2196F3"/></radialGradient><image xlink:href="data:image/png;base64,iVBORw0KGgoAAAANSUhEUgAAACgAAAARCAYAAACvi+4IAAAACXBIWXMAAA7DAAAOwwHHb6hkAAAAGXRFWHRTb2Z0d2FyZQB3d3cuaW5rc2NhcGUub3Jnm+48GgAAAGhJREFUSIntzrENgDAMRFHOcp3NMgDLZwUkKAhCimmojyLFueBLv3+ota5L4kwN+OoHzvYDZ0sPdAChRrB8jJEbaGa3GsHyiDjVCJYD2NUIlgPY1AiW995zA0sphxrB8tbapUaw8J62B0eWFdJvUfl1AAAAAElFTkSuQmCC" id="b" width="40" height="17"/></defs><path d="M12.094 1a31.672 31.672 0 0 0-2.155.068c-.109.032-.223.047-.343.045-.743.06-1.476.179-2.2.356-3.106.738-5.065 2.65-5.876 5.736a18.486 18.486 0 0 0-.516 4.785c-.03 1.522.119 3.026.447 4.512.774 3.3 2.818 5.319 6.13 6.057 1.049.216 2.105.35 3.167.408a8.054 8.054 0 0 1 5.43-11.213L12.396 22.74h1.499l1.91-5.601h1.035l-1.885 5.601h.512c.36-.062.717-.138 1.072-.226l1.703-4.989a1.507 1.507 0 0 0 .078-.412 1.17 1.17 0 0 0-.093-.484.95.95 0 0 0-.393-.422.947.947 0 0 0-.23-.088 1.066 1.066 0 0 0-.268-.031H16.17l1.59-4.545a8.054 8.054 0 0 1 .242-.016 8.054 8.054 0 0 1 4.959 1.735c.051-1.056.05-2.114-.02-3.172a14.269 14.269 0 0 0-.755-3.824c-.747-2.06-2.133-3.506-4.159-4.34a13.542 13.542 0 0 0-3.78-.846A31.63 31.63 0 0 0 12.093 1zm10.525 15.084-2.765.004-2.084 6.068.027-.01c1.906-.699 3.286-1.97 4.137-3.812.314-.728.551-1.478.714-2.248l-.029-.002z"/><path d="M16.465 11.693a8.045 8.045 0 0 1 .5-.09 8.045 8.045 0 0 1 .549-.043 8.054 8.054 0 0 0-1.05.133z" style="fill:url(#i);stroke-width:1.08527"/><g transform="translate(20)"><rect width="13.273" height="12.981" x="-14.636" y="5.942" rx="0" style="fill:url(#j);stroke-width:.288462"/><path d="M-14.348 6.231h12.692v11.538h-12.692z" style="fill:url(#k);stroke-width:1.78846;stroke-linecap:round;stroke-linejoin:bevel"/><path d="M-14.636 17.98v.943c0 .426.264.577.686.577h12.006c.288 0 .577-.288.577-.577v-.865z" style="fill:url(#l);stroke-width:.288462"/><path d="M-14.059 6.519h12.115v10.962h-12.115z" style="fill:url(#m);stroke-width:1.78846;stroke-linecap:round;stroke-linejoin:bevel"/><path d="M-14.636 5.942v-.865c0-.289.288-.577.59-.577h12.102c.288 0 .577.288.577.577v.865z" style="fill:url(#n);stroke-width:.288462"/><path d="M-13.771 11.135h11.538v.577h-11.538z" style="fill:#84cbfe;stroke-width:1.78846;stroke-linecap:round;stroke-linejoin:bevel"/><path d="M-13.771 11.712h11.538v1.154h-11.538z" style="opacity:.2;fill:url(#o);stroke-width:1.78846;stroke-linecap:round;stroke-linejoin:bevel"/><path d="M-13.771-11.135h11.538v1.154h-11.538z" style="opacity:.2;fill:url(#p);stroke-width:1.78846;stroke-linecap:round;stroke-linejoin:bevel" transform="scale(1 -1)"/><path d="M-13.482 9.404h6.346v7.788h-6.346z" style="fill:#eff0f1;stroke-width:1.78846;stroke-linecap:round;stroke-linejoin:bevel"/><path d="M-2.81 18.058h-10.384v.577c0 .288.288.577.577.577h9.23c.29 0 .578-.289.578-.577z" style="fill:url(#q);stroke-width:.576923;stroke-linecap:round;stroke-linejoin:round"/><circle cx="-18.635" cy="12.435" r=".288" style="fill:#11d116;stroke-width:.576923;stroke-linecap:round;stroke-linejoin:round" transform="matrix(0 -1 -1 0 0 0)"/><path d="M-14.636 5.077h13.269v.865h-13.269z" style="fill:url(#r);stroke-width:1.78846;stroke-linecap:round;stroke-linejoin:bevel"/></g></svg>
